X:1
T:[Audiveris detected movement]
T:N°36. THUS THE EVER GRATEFUL SPRING
T:from THE FAIRY QUEEN
T:HENRY PURCELL
%%score 1 { ( 2 3 ) | ( 4 5 ) }
L:1/8
Q:1/4=80
M:4/4
K:D
V:1 treble nm="Soprano" snm="S."
V:2 treble nm="Piano"
V:3 treble 
V:4 bass 
V:5 bass 
V:1
"^N° 36." x8 | x8 | x8 | x8 | x8 | x8 | x8 | x8 | x8 | %9
w: |||||||||
"^SONG (Soprano). THUS THE EVER GRATEFUL SPRING" z2 dB Ff (e/d/) (c/B/) | ^A2 z2 z4 | %11
w: Thus the ev- er grate- * fu1 *|Spring,|
 z2 dB Ff (e/d/) (c/B/) |[K:D] ^A2 cF dc BA/^G/ | F2 fB gf (e/>f/d/>e/ | %14
w: thus the ev- er grate- * fu1 *|Spring Does her year- ly tri- bute *|bring,does * her year- ly tri- * * *|
 c/>d/c/>d/ e/>f/d/>e/ c/>d/B/>c/ d) (c/B/) | B2 BF dc B^A/^G/ | F2 fB gf (e/>f/d/>e/ | %17
w: * * * * * * * * * * * * * bute *|bring,does * her year- ly tri- bute *|bring,does * her year- 1y tri- * * *|
 c/>d/c/>d/ e/>f/d/>e/ c/>d/B/>c/ d) (c/B/) | B4 z2 d>c | BecA d2 g>f | ef^dB e>e f>f | %21
w: * * * * * * * * * * * * * bute *|bring; All yôur|sweets be- fore him 1ay, al1 your|sweets be- fore him 1ay, Then round his|
 (g/f/-)e/f/ (g/f/) (e/^d/) e2 BG | E2 ec ^A2 fd | B>c c>B ^A>B cF | %24
w: al- tar * * sing * and * p1ay,A1l,a1l, * *|al1, al1,a1l,al1, * * a11your *|sweets be- fore him1ay, * Then round his|
 d/c/ B/A/ A ^G/F/ F>G A/>G/F/>A/ | ^G/>B/A/>c/ B/>c/d/>B/ c>d e/>d/c/>e/ | %26
w: al- * tar * sing and * play, then round _ _ _|_ _ _ _ _ _ _ _ _ _ _ _ _ _|
 ^d/>f/^e/>^g/ f c =d/c/ (B/A/) A (^G/F/) | F4 z4 | z2 d B F f (e/d/) (c/B/) | ^A2 c F d c BA/^G/ | %30
w: * * * * * his al- * tar * sing and *|play.|Thus the ev- er grate- * ful *|Spring Does her year- ly tri- bute *|
 F2 fB gf (e/>f/d/>e/ | c/>d/c/>d/ e/>f/d/>e/ c/>d/B/>c/ d) (c/B/) | B2 BF dc (B^A/^G/) | %33
w: bring,does * her year- ly tri- * * *|* * * * * * * * * * * * * bute *|bring, does heryear- * ly tri- bute *|
 F2 fB gf (e/>f/d/>e/ | c/>d/c/>d/ e/>f/d/>e/ c/>d/B/>c/ d) (c/B/) | B8 |] %36
w: bring, does her year- 1y tri- * * *|* * * * * * * * * * * * * bute *|bring|
V:2
 z2 F>G Af e/d/c/B/ | ^A2 =A>B ca g/f/e/d/ | [Ac]2 [Bf][Bd] [ce][^Ac] [Bd]>[ce] | %3
 ccdc [Ge][Fd][=Af][Ge] | [Bg][Af][ce].[Bd] [df][ce][Bd][^Ac] | %5
 [Bd][ceg] [gb][fa]/>[gb]/ [fa][eg]/>[fa]/ [eg][df]/>[eg]/ | %6
 [df][ce]/>[df]/ [ce][Bd]/>[ce]/ B2 ^A>B | B[df] [gb][fa]/>[gb]/ [fa][eg]/>[fa]/ [eg][df]/>[eg]/ | %8
 [df][ce]/>d/ [ce][Bd]/>[ce]/ B2 ^A>B | B2 F>G A2 B2 | [F^A]2 [Bf][Bd] [ce][Ac] [Bd]2 | %11
 [Fc]2 dB FBGB |[K:D] [F^A]4 z2 F2 | F2 FB B2 [EB][A=d] | [Gc][FB][E^A][FB] A B2 A | [DFB]4 z2 F2 | %16
 F2 FB B2 [EB][A=d] | [Gc][FB][E^A][FB] A B2 A | B2 B>d c2 d>c | B2 cA d2 e>d | =cA B2 B3 B/A/ | %21
 GB [EG][B,F] [G,E]2 z2 | E2 G/F/E/D/ C2 d/c/B/A/ | B/A/G/F/ G/F/E/.D/ C3 [CF] | %24
 [DF]2 ^E2 [=A,F]2 [CA]2 | ^GA [FB]2 [E^A]2 [CF]2 | F/>^D/^E F2 F3 E | %27
 [^A,CF]2 [Bf][Bd] [ce][^Ac] [Bd]2 | [Fc]2 dB FAGB | [C^A]4 z2 F2 | F2 FB B2 [^DB][A=d] | %31
 [Gc][FB][E^A][FB] A B2 A | [DB]4 z2 F2 | F2 FB B2 [EB][A=d] | [Gc][FB][E^A][FB] A B2 A | B8 |] %36
V:3
 x2 D2 F2- FE | F2 FD A2 dG | x8 | A2 z F2 x3 | x8 | x8 | x4 dc c>B | x8 | x4 dc c>B | B2 D2 F3 E | %10
 x8 | x2 FE D2 E2 |[K:D] x8 | FE D2 E^D x2 | x4 CE F2 | x8 | FE D2 E^D x2 | x4 CE F2 | %18
 F2 B>A GE A/F x/ | DG E2 AG/F/ EB | A^D/E/ FD EGFD | E2 x6 | x8 | x8 | x2 CB, x4 | E2 x6 | %26
 B,3 C =D[I:staff +1]F, x2 | x8 | x2[I:staff -1] D2 C2 E2 | x8 | FE D2 E^D x2 | x4 CE F2 | x8 | %33
 FE D2 E^D x2 | x4 CE F2 | D8 |] %36
V:4
 B,,2 B,2 A,2 G,2 | F,2 D,2 C,2 B,,2 | A,,2 D,B,, F,,F, E,/D,/C,/B,,/ | %3
 F,2 [F,,F,]2 [B,,B,]2 [A,,A,]2 | [G,,G,]4 [F,,F,]4 | [B,,B,]2 [G,,G,]2 [D,A,]2 [E,C]2 | %6
 [B,,B,]2 [C,^A,]2 D,E, B,,F,, | [B,,F,]2 [G,,G,]2 [D,A,]2 [E,C]2 | [B,,B,]2 [C,^A,]2 D,E, F,F,, | %9
 [B,,F,]2 B,2 A,2 G,2 | F,2 D,B,, F,,F, E,/D,/C,/B,,/ | ^A,,F,,B,,C, D,B,,E,G, |[K:D] F,4 z2 B,F, | %13
 DC B,/A,/G,/F,/ E,B,,G,F, | E,D,C,B,, F,G,F,F,, | B,,4 z2 B,F, | DC B,/A,/G,/F,/ E,B,,G,F, | %17
 E,D,C,B,, F,G,F,F,, | B,,2 G,>F, E,A,F,D, | G,2 A,>G, F,B,G,E, | A,=CB,A, G,E,^D,B,, | %21
 E,G,,A,,.B,, E,,3 E, | G,E, C,2 F,D,B,,B, | G,2 E,2 F,^G,^A,F, | B,B,, C,2 F,,2 F,2 | %25
 E,2 D,2 C,2 ^A,,2 | B,,C,=D,A,, B,,D, C,2 | .F,,2 D,B,, F,,F, E,/D,/C,/B,,/ | %28
 ^A,,F,,B,,B, =A,F,G,E, | F,4 z2 B,F, | DC B,/A,/G,/F,/ E,B,,G,F, | E,D,C,B,, F,G,F,F,, | %32
 B,,4 z2 B,F, | DC B,/A,/G,/F,/ E,B,,G,F, | E,D,C,B,, F,G,F,F,, | B,,8 |] %36
V:5
 x8 | x8 | x8 | x8 | x8 | x8 | x4 B,G, F,2 | x8 | x4 B,G, F,2 | x8 | x8 | x8 |[K:D] x8 | x8 | x8 | %15
 x8 | x8 | x8 | x8 | x8 | x8 | x8 | x8 | x8 | x8 | x8 | x8 | x8 | x8 | x8 | x8 | x8 | x8 | x8 | %34
 x8 | x8 |] %36

